src/assets/icons/thumbs-up-filled.svg

<svg width="24" height="24" viewBox="0 0 24 24" fill="none" xmlns="http://www.w3.org/2000/svg">
<path d="M11.8641 4.54563C12.7941 4.35563 13.7541 4.94563 14.0241 5.83563C14.4741 7.27563 13.8041 8.18563 13.3041 9.48563L13.3541 9.66563C13.4441 9.72563 13.8941 9.70563 14.0341 9.69563C15.2241 9.65563 17.0241 9.19563 18.1041 9.61563C19.2841 10.0856 19.8241 11.1256 19.7341 12.3656C19.6141 14.0556 19.0741 15.8956 18.8941 17.5856C18.5541 18.6856 17.6341 19.4156 16.4841 19.4956C13.9941 19.6656 11.3141 19.3556 8.80409 19.4956L8.59409 19.3856C8.51409 18.7456 8.38409 18.1056 8.32409 17.4656C8.12409 15.3456 8.07409 11.9856 8.89409 10.0356C9.60409 8.33563 10.4741 6.69563 11.2141 5.00563C11.3141 4.80563 11.6441 4.59563 11.8541 4.54563H11.8641Z" fill="#314158"/>
<path d="M7.60377 10.84C7.33377 12.11 7.29377 13.39 7.28377 14.68C7.27377 15.59 7.26377 16.53 7.35377 17.45C7.41377 18.13 7.57377 18.8 7.61377 19.48H6.42377C6.25377 19.48 5.71377 19.17 5.55377 19.06C3.73377 17.65 3.76377 12.71 5.55377 11.26C5.68377 11.16 6.16377 10.84 6.29377 10.84H7.61377H7.60377Z" fill="#314158"/>
</svg>

<svg fill="none" viewBox="0 0 24 24"><path fill="currentColor" d="M11.864 4.546c.93-.19 1.89.4 2.16 1.29.45 1.44-.22 2.35-.72 3.65l.05.18c.09.06.54.04.68.03 1.19-.04 2.99-.5 4.07-.08 1.18.47 1.72 1.51 1.63 2.75-.12 1.69-.66 3.53-.84 5.22a2.66 2.66 0 0 1-2.41 1.91c-2.49.17-5.17-.14-7.68 0l-.21-.11c-.08-.64-.21-1.28-.27-1.92-.2-2.12-.25-5.48.57-7.43.71-1.7 1.58-3.34 2.32-5.03.1-.2.43-.41.64-.46zM7.604 10.84c-.27 1.27-.31 2.55-.32 3.84-.01.91-.02 1.85.07 2.77.06.68.22 1.35.26 2.03h-1.19c-.17 0-.71-.31-.87-.42-1.82-1.41-1.79-6.35 0-7.8.13-.1.61-.42.74-.42h1.32z"/></svg>
